svg/line/store-slash.svg

<svg xmlns="http://www.w3.org/2000/svg" data-name="Layer 1" viewBox="0 0 24 24"><path d="M8.7002,4h9.62255l1.66163,4.15436A1.995,1.995,0,0,1,16,8a1,1,0,0,0-2,0,1.82572,1.82572,0,0,1-.13428.7085.99968.99968,0,0,0,.543,1.30566.94684.94684,0,0,0,.17438.03485A3.988,3.988,0,0,0,18,12v1.2998a1,1,0,0,0,2,0V11.44354A3.98539,3.98539,0,0,0,21.99609,8.0387c.00037-.00934.00263-.018.00275-.02741L22,8a.949.949,0,0,0-.03455-.171.95216.95216,0,0,0-.03674-.20062l-2-5A1.00073,1.00073,0,0,0,19,2H8.7002a1,1,0,1,0,0,2ZM22.707,21.293l-2.9331-2.93311a.94279.94279,0,0,0-.15363-.15362L9.67,8.256a.97257.97257,0,0,0-.20629-.2063L5.18219,3.76813a.9629.9629,0,0,0-.12793-.12793L2.707,1.293A.99989.99989,0,0,0,1.293,2.707L3.25653,4.67059,2.07867,7.61066l-.00012.0003-.00677.017a.953.953,0,0,0-.03473.18854A.94823.94823,0,0,0,2,8l.00116.01154.0025.02441A3.98555,3.98555,0,0,0,4,11.44354V21a1,1,0,0,0,1,1H19a.99324.99324,0,0,0,.93042-.65552L21.293,22.707A.99989.99989,0,0,0,22.707,21.293ZM4.01556,8.15375l.7782-1.94593L7.67,9.08405A1.97241,1.97241,0,0,1,6,10,1.99575,1.99575,0,0,1,4.01556,8.15375ZM9,15v5H6V12a3.96371,3.96371,0,0,0,3.10217-1.48376L12.58594,14H10A1,1,0,0,0,9,15Zm4,5H11V16h2Zm5,0H15V16.41406l3,3Z"/></svg>

<svg xmlns="http://www.w3.org/2000/svg" data-name="Layer 1" viewBox="0 0 24 24"><path d="M8.7 4h9.623l1.661 4.154A1.995 1.995 0 0 1 16 8a1 1 0 0 0-2 0 1.826 1.826 0 0 1-.134.709 1 1 0 0 0 .543 1.305.947.947 0 0 0 .174.035A3.988 3.988 0 0 0 18 12v1.3a1 1 0 0 0 2 0v-1.856a3.985 3.985 0 0 0 1.996-3.405c0-.01.003-.018.003-.028L22 8a.949.949 0 0 0-.035-.171.952.952 0 0 0-.036-.2l-2-5A1 1 0 0 0 19 2H8.7a1 1 0 1 0 0 2Zm14.007 17.293-2.933-2.933a.943.943 0 0 0-.154-.154l-9.95-9.95a.973.973 0 0 0-.206-.206L5.182 3.768a.963.963 0 0 0-.128-.128L2.707 1.293a1 1 0 0 0-1.414 1.414l1.964 1.964-1.178 2.94-.007.017a.953.953 0 0 0-.035.189A.948.948 0 0 0 2 8l.001.012.003.024A3.986 3.986 0 0 0 4 11.444V21a1 1 0 0 0 1 1h14a.993.993 0 0 0 .93-.656l1.363 1.363a1 1 0 0 0 1.414-1.414ZM4.016 8.153l.778-1.945L7.67 9.084A1.972 1.972 0 0 1 6 10a1.996 1.996 0 0 1-1.984-1.846ZM9 15v5H6v-8a3.964 3.964 0 0 0 3.102-1.484L12.586 14H10a1 1 0 0 0-1 1Zm4 5h-2v-4h2Zm5 0h-3v-3.586l3 3Z"/></svg>
